assets/img/components/divider.svg

<svg width="272" height="143" viewBox="0 0 272 143" fill="none" xmlns="http://www.w3.org/2000/svg">
<rect width="272" height="143" rx="8" fill="#EFF6FB"/>
<path d="M36 73H232" stroke="#154973" stroke-width="2"/>
<path d="M37.0498 31C37.0498 29.3431 38.393 28 40.0498 28H124.089C125.746 28 127.089 29.3431 127.089 31C127.089 32.6569 125.746 34 124.089 34H40.0498C38.3929 34 37.0498 32.6569 37.0498 31Z" fill="#CDDDE9"/>
<path d="M135.129 31C135.129 29.3431 136.472 28 138.129 28H194.835C196.492 28 197.835 29.3431 197.835 31C197.835 32.6569 196.492 34 194.835 34H138.129C136.472 34 135.129 32.6569 135.129 31Z" fill="#CDDDE9"/>
<rect x="36" y="45" width="136.458" height="6" rx="3" fill="#CDDDE9"/>
<path d="M37.0498 98C37.0498 96.3431 38.393 95 40.0498 95H89.089C90.7459 95 92.089 96.3431 92.089 98C92.089 99.6569 90.7459 101 89.089 101H40.0498C38.393 101 37.0498 99.6569 37.0498 98Z" fill="#CDDDE9"/>
<path d="M100.129 98C100.129 96.3431 101.472 95 103.129 95H175.5C177.157 95 178.5 96.3431 178.5 98C178.5 99.6569 177.157 101 175.5 101H103.129C101.472 101 100.129 99.6569 100.129 98Z" fill="#CDDDE9"/>
<path d="M36 115C36 113.343 37.3431 112 39 112H116C117.657 112 119 113.343 119 115C119 116.657 117.657 118 116 118H39C37.3431 118 36 116.657 36 115Z" fill="#CDDDE9"/>
</svg>

<svg xmlns="http://www.w3.org/2000/svg" width="272" height="143" fill="none" viewBox="0 0 272 143"><rect width="272" height="143" fill="#eff6fb" rx="8"/><path stroke="#154973" stroke-width="2" d="M36 73h196"/><path fill="#cddde9" d="M37.05 31a3 3 0 0 1 3-3h84.039a3 3 0 1 1 0 6h-84.04a3 3 0 0 1-3-3M135.129 31a3 3 0 0 1 3-3h56.706a3 3 0 1 1 0 6h-56.706a3 3 0 0 1-3-3"/><rect width="136.458" height="6" x="36" y="45" fill="#cddde9" rx="3"/><path fill="#cddde9" d="M37.05 98a3 3 0 0 1 3-3h49.039a3 3 0 1 1 0 6h-49.04a3 3 0 0 1-3-3M100.129 98a3 3 0 0 1 3-3H175.5a3 3 0 1 1 0 6h-72.371a3 3 0 0 1-3-3M36 115a3 3 0 0 1 3-3h77a3 3 0 1 1 0 6H39a3 3 0 0 1-3-3"/></svg>
